icons/codespaces-v4-24.svg

<svg width="24" height="24" viewBox="0 0 24 24" fill="none" xmlns="http://www.w3.org/2000/svg">
<g clip-path="url(#clip0)">
<path fill-rule="evenodd" clip-rule="evenodd" d="M8.46967 3.21967C8.76256 2.92678 9.23744 2.92678 9.53033 3.21967L17.7803 11.4697C17.921 11.6103 18 11.8011 18 12C18 12.1989 17.921 12.3897 17.7803 12.5303L9.53033 20.7803C9.38968 20.921 9.19891 21 9 21C8.80109 21 8.61032 20.921 8.46967 20.7803L0.21967 12.5303C0.0790173 12.3897 -1.19209e-07 12.1989 0 12C1.19209e-07 11.8011 0.0790179 11.6103 0.21967 11.4697L8.46967 3.21967ZM1.81066 12L9 19.1893L16.1893 12L9 4.81066L1.81066 12Z" fill="black"/>
<path fill-rule="evenodd" clip-rule="evenodd" d="M14.4697 3.21967C14.7626 2.92678 15.2374 2.92678 15.5303 3.21967L23.7803 11.4697C24.0732 11.7626 24.0732 12.2374 23.7803 12.5303L15.5303 20.7803C15.2374 21.0732 14.7626 21.0732 14.4697 20.7803L6.21967 12.5303C5.92678 12.2374 5.92678 11.7626 6.21967 11.4697L14.4697 3.21967ZM7.81066 12L15 19.1893L22.1893 12L15 4.81066L7.81066 12Z" fill="black"/>
</g>
<defs>
<clipPath id="clip0">
<rect width="24" height="24" fill="white"/>
</clipPath>
</defs>
</svg>

<svg xmlns="http://www.w3.org/2000/svg" width="24" height="24" viewBox="0 0 24 24"><g fill-rule="evenodd"><path d="M8.47 3.22a.75.75 0 011.06 0l8.25 8.25a.75.75 0 010 1.06l-8.25 8.25a.75.75 0 01-1.06 0L.22 12.53a.75.75 0 010-1.06l8.25-8.25zM1.81 12L9 19.19 16.19 12 9 4.81 1.81 12z"/><path d="M14.47 3.22a.75.75 0 011.06 0l8.25 8.25a.75.75 0 010 1.06l-8.25 8.25a.75.75 0 01-1.06 0l-8.25-8.25a.75.75 0 010-1.06l8.25-8.25zM7.81 12L15 19.19 22.19 12 15 4.81 7.81 12z"/></g></svg>
